Setup/v9/Assets/Themes/Kobe/MainMenu.svg

<svg width="20" height="20" viewBox="0 0 20 20" fill="none" xmlns="http://www.w3.org/2000/svg">
<path fill-rule="evenodd" clip-rule="evenodd" d="M18 4.75C18.4142 4.75 18.75 4.41421 18.75 4C18.75 3.58579 18.4142 3.25 18 3.25H2C1.58578 3.25 1.25 3.58579 1.25 4C1.25 4.41422 1.58578 4.75 2 4.75L18 4.75ZM18.75 10C18.75 10.4142 18.4142 10.75 18 10.75L2 10.75C1.58578 10.75 1.25 10.4142 1.25 10C1.25 9.58579 1.58578 9.25 2 9.25L18 9.25C18.4142 9.25 18.75 9.58579 18.75 10ZM18.75 16C18.75 16.4142 18.4142 16.75 18 16.75L2 16.75C1.58578 16.75 1.25 16.4142 1.25 16C1.25 15.5858 1.58578 15.25 2 15.25L18 15.25C18.4142 15.25 18.75 15.5858 18.75 16Z" fill="#fff"/>
</svg>

<svg xmlns="http://www.w3.org/2000/svg" width="20" height="20" fill="none"><path fill="#ddd" fill-rule="evenodd" d="M18 4.75a.75.75 0 0 0 0-1.5H2a.75.75 0 1 0 0 1.5h16Zm.75 5.25a.75.75 0 0 1-.75.75H2a.75.75 0 0 1 0-1.5h16a.75.75 0 0 1 .75.75Zm0 6a.75.75 0 0 1-.75.75H2a.75.75 0 0 1 0-1.5h16a.75.75 0 0 1 .75.75Z" clip-rule="evenodd"/></svg>
